cssgg/corner-double-down-left.svg

<svg
  width="24"
  height="24"
  viewBox="0 0 24 24"
  fill="none"
  xmlns="http://www.w3.org/2000/svg"
>
  <path
    d="M11.2952 7.69432L16.1357 2.6377L21.1924 7.47821L19.8094 8.92296L17.3474 6.56617L17.5094 12.6C17.5805 15.25 15.49 17.456 12.8399 17.5271L6.91369 17.6863L9.20765 19.9335L7.80805 21.3622L2.80768 16.4636L7.70628 11.4632L9.13495 12.8628L6.75759 15.2896L12.7755 15.128C14.1005 15.0924 15.1458 13.9895 15.1102 12.6645L14.9519 6.76668L12.74 9.07732L11.2952 7.69432Z"
    fill="currentColor"
  />
</svg>

<svg viewBox="0 0 24 24" xmlns="http://www.w3.org/2000/svg"><path d="M11.29 7.69l4.84-5.06 5.05 4.84 -1.39 1.44 -2.47-2.36 .16 6.03c.07 2.65-2.02 4.856-4.67 4.92l-5.93.15 2.29 2.24 -1.4 1.42 -5.01-4.9 4.89-5.01 1.42 1.39 -2.38 2.42 6.01-.17c1.32-.04 2.37-1.14 2.33-2.47l-.16-5.9 -2.22 2.31 -1.45-1.39Z"/></svg>
